svg/u1f387.svg

<svg viewBox="0 0 128 128" xmlns="http://www.w3.org/2000/svg">
  <radialGradient id="SVGID_1_" cx="65.9224" cy="65.1974" gradientTransform="matrix(0.0156 -0.9999 1.1028 0.0172 -7.0046 129.9884)" gradientUnits="userSpaceOnUse" r="70.091">
    <stop offset="0.1637" stop-color="#EE5416"/>
    <stop offset="0.2337" stop-color="#E95216"/>
    <stop offset="0.3112" stop-color="#DC4D17"/>
    <stop offset="0.3923" stop-color="#C64418"/>
    <stop offset="0.4755" stop-color="#A7391A"/>
    <stop offset="0.4969" stop-color="#9E351B"/>
    <stop offset="0.5763" stop-color="#8D311B"/>
    <stop offset="0.734" stop-color="#60281A"/>
    <stop offset="0.9508" stop-color="#191919"/>
  </radialGradient>
  <path d="M116.69,124.19H11.38c-4.15,0-7.52-3.37-7.52-7.52V11.37c0-4.15,3.37-7.52,7.52-7.52h105.3 c4.15,0,7.52,3.37,7.52,7.52v105.3C124.21,120.83,120.84,124.19,116.69,124.19z" fill="url(#SVGID_1_)"/>
  <radialGradient id="SVGID_2_" cx="66.1051" cy="69.1262" gradientUnits="userSpaceOnUse" r="35.7239">
    <stop offset="0.4147" stop-color="#F3A05C"/>
    <stop offset="0.9987" stop-color="#AB5931"/>
  </radialGradient>
  <polygon points="61.57,76.36 61.29,124.2 68.26,124.19 69.29,73.48 65.2,69.85 " fill="url(#SVGID_2_)"/>
  <path d="M69.2,58.22l21.5-30.56l4.43,0.38l-19.8,30.6c0,0,21.02-17.22,22.15-17.97 c1.13-0.75,1.79-0.57,2.36,0s0.28,1.41-0.75,2.26S73.91,62.8,73.91,62.8l32.91-8.57l4.05,1.04l-4.24,2.45l-32.31,8.35l36.08,4.38 c0,0,2.07,0.47,1.79,2.26c-0.28,1.79-1.79,1.6-2.64,1.6c-0.85,0-33.61-3.17-33.61-3.17s21.45,13.54,22.49,14.2 c1.04,0.66,1.6,1.98,1.04,2.92c-0.57,0.94-1.79,0.75-3.11,0.19C95.04,87.89,74.21,74.8,74.21,74.8l24.12,34.48l-0.57,4.62 c0,0-1.32-1.04-2.36-2.45c-1.04-1.41-28.13-36.76-29.64-36.85c-1.51-0.09-29.84,27.8-29.84,27.8l-6.03,0.38l3.02-5l22.69-24.3 c0,0-37.2,13.28-38.9,13.65c-1.7,0.38-3.58,1.41-4.24-0.38s1.41-2.36,2.83-2.83s38.69-14.11,38.69-14.11l-25.96-1.92l-1.89-3.68 l27.14,2.34L18.12,46.32l6.32-1.79L55.1,60.36c0,0-26.14-28.94-26.99-29.88c-0.85-0.94-1.57-2.2-0.47-3.2 c1.13-1.04,2.73,0.38,3.39,1.23c0.66,0.85,28.82,30.99,28.54,30.33c-0.28-0.66-14.59-37.87-14.59-37.87l1.32-2.36l3.49,2.73 l14.35,36.54l1.11-37.2l3.96,2.55L69.2,58.22z" fill="#FFFFFF"/>
  <path d="M46.05,14.31c0,0,4.91-4.89,5.67-5.47c1.08-0.81,2.5-0.2,1.69,1.42c-0.81,1.62-4.39,7.02-4.39,7.02 s8.34,6.38,9.11,6.95c1.08,0.81,0.13,2.36-0.94,1.82c-1.08-0.54-10.06-5.67-10.06-5.67s-3.41,12.25-3.78,13.09 c-0.74,1.69-2.09,1.55-2.23-0.13c-0.13-1.57,0.94-13.23,0.94-13.23s-11.14-1.08-13.23-1.35c-2.09-0.27-2.09-2.42,0.47-2.36 c2.83,0.07,12.35,0.07,12.35,0.07s-0.94-5.26-1.21-7.09C40.17,7.56,41.6,7.17,42.4,8.5C43.21,9.85,46.05,14.31,46.05,14.31z" fill="#FFE268"/>
  <path d="M65.42,22.81c-1.01-0.47-7.76-6.82-8.37-7.56c-0.61-0.74-0.08-2.21,1.48-1.35 c1.64,0.9,5.88,3.3,5.88,3.3s0.4-5.93,0.54-7.21c0.2-1.96,1.48-1.82,1.89,0s1.2,6.95,1.2,6.95s10.25-6.85,11.21-7.49 c1.42-0.94,2.7,0.13,1.21,1.82c-1.48,1.69-10.65,9.88-10.44,10.01c0.2,0.13,5.04,2.51,6.12,3.22c1.75,1.15,1.15,2.63-0.88,1.96 c-2.02-0.67-6.42-2.62-7.23-2.89C67.23,23.3,65.42,22.81,65.42,22.81z" fill="#FFE268"/>
  <path d="M93.63,29.36c-0.27-0.07-9.18-2.02-10.06-2.43c-0.88-0.4-0.81-1.82,0.67-1.42 c1.48,0.4,6.34,1.21,6.34,1.21s-4.45-9.52-4.99-10.8c-0.54-1.28,0.4-1.96,1.35-1.08c0.94,0.88,4.93,5.47,4.93,5.47 s0.47-5.6,0.81-7.22s1.75-1.21,2.09,0.13c0.23,0.94,1.32,8.35,1.32,8.35s10.82-3.91,12.24-4.37c1.89-0.61,2.5,0.54,0.88,1.69 c-1.62,1.15-10.53,6.01-10.33,6.28c0.2,0.27,5.4,1.55,6.68,1.96c1.28,0.4,1.42,1.89-0.34,2.02C103.48,29.29,93.63,29.36,93.63,29.36 z" fill="#FFE268"/>
  <path d="M109.55,52.44c0.13,0.07,4.32-8.5,5.2-9.72c0.88-1.21,1.75-0.34,1.69,0.61 c-0.07,0.94-2.63,9.72-2.63,9.72s4.86,0.13,6.34,0.27c1.48,0.13,1.75,1.35,0.07,1.82c-1.69,0.47-6.34,1.69-6.34,1.69 s2.29,3.64,3.44,5.53c0.78,1.28-0.13,2.5-1.48,1.48c-1.35-1.01-5.47-5.94-5.47-5.94s-5.4,7.29-6.41,8.5s-2.69,0.64-1.61-1.25 c0.81-1.42,5.94-9.75,5.94-9.75s-10.68-3.43-11.8-3.85c-1.62-0.61-1.37-2.15,0.52-1.81C98.89,50.08,109.42,52.37,109.55,52.44z" fill="#FFE268"/>
  <path d="M110.96,72.74c0,0-3.45-5.1-3.83-5.92c-0.47-1.01,0.07-1.82,1.35-1.08s5.2,3.71,5.2,3.71 s0.88-1.15,1.89-2.23c1.01-1.08,1.94-0.81,1.43,0.88c-0.41,1.38-1,3.32-1,3.32s3.02,0.91,4.1,1.31c0.92,0.35,1.35,1.23-0.27,1.7 c-0.8,0.23-3.71,0.67-3.71,0.67s2.36,5.33,2.83,6.41c0.67,1.55-1.15,2.63-2.09,0.81c-0.64-1.23-3.17-5.74-3.17-5.74 s-5.9,6.19-6.88,7.02c-1.28,1.08-2.29,0.88-1.75-0.81S110.96,72.74,110.96,72.74z" fill="#FFE268"/>
  <path d="M96.53,110.82c0,0,4.49-17.12,4.89-18.56c0.54-1.96,2.53-1.89,2.4,0.06 c-0.14,2.02-2.23,18.41-2.23,18.41s8.57-1.63,10.26-2.1c1.69-0.47,3.04,0.29,1.15,1.51c-1.89,1.21-10.46,6.01-10.46,6.01 s0.74,2.7,1.35,4.59c0.51,1.59-0.18,2.06-1.67,0.98c-1.05-0.76-3.57-2.94-3.57-2.94s-1.85,2.79-2.63,3.52 c-0.84,0.79-1.72,1.07-1.51-0.68c0.14-1.22,0.93-5.1,0.93-5.1c0.01,0.06-11.64-2.23-13.4-2.68c-1.64-0.42-1.98-1.13-0.29-1.2 S96.53,110.82,96.53,110.82z" fill="#FFE268"/>
  <path d="M33.29,100.97c0,0-0.15-7.82-0.27-9.79c-0.13-2.16-1.69-2.43-2.36-0.34 c-0.59,1.84-2.23,8.03-2.23,8.03s-7.02-6.61-8.1-7.63s-2.29,0-1.69,1.21c0.61,1.21,5.82,11.88,5.82,11.88s-5.08,7.16-6.02,9.05 c-0.94,1.89,0.34,2.43,1.75,1.89s8.09-5.11,8.09-5.11s7.29,7.61,8.17,8.35c0.88,0.74,2.16,0.2,1.69-1.35 c-0.49-1.59-4.61-10.33-4.61-10.33s10.82-3.24,12.31-3.71c1.48-0.47,1.08-2.29-0.61-2.23S33.29,100.97,33.29,100.97z" fill="#FFE268"/>
  <path d="M26.54,62.43c0,0,5.67-2.77,6.68-3.31c1.01-0.54,2.02,0.61,1.01,1.62s-5.06,4.79-5.06,4.79 s3.91,3.91,4.86,4.72c0.94,0.81,0.54,2.09-1.08,1.69c-1.62-0.4-6.41-2.9-6.41-2.9s-2.3,4.56-2.77,5.26 c-0.67,1.01-1.96,0.81-2.02-0.67c-0.07-1.48,0.12-5.68,0.12-5.68s-6.85-1.39-10.18-2.29c-1.24-0.33-1.55-1.75,0.27-1.96 s10.19-0.67,10.19-0.67s0.48-4.97,0.61-6.01c0.13-1.08,1.15-1.28,1.75-0.13C25.12,58.04,26.54,62.43,26.54,62.43z" fill="#FFE268"/>
  <path d="M21.55,46.91c0,0,0,7.36,0.07,8.23c0.07,0.88-1.21,1.48-1.69,0.13c-0.47-1.35-2.7-7.71-2.7-7.71 s-4.59,4.47-5.6,5.35s-2.43,0.34-1.75-1.08c0.67-1.42,3.94-7.18,3.94-7.18s-5.15-4.16-6.3-5.17C5.82,38,6.7,36.78,8.18,37.25 s7.97,3.06,7.97,3.06s3.73-7.03,4.11-7.79c0.81-1.62,1.82-1.21,1.75,0.54c-0.07,1.75-0.94,8.3-0.94,8.3s6.94-1.13,8.37-1.35 c2.16-0.34,2.36,0.54,0.81,1.82C28.7,43.13,21.55,46.91,21.55,46.91z" fill="#FFE268"/>
</svg>

<svg viewBox="0 0 128 128" xmlns="http://www.w3.org/2000/svg">
  <defs>
    <radialGradient id="SVGID_1_" cx="-64.156607" cy="60.685823" gradientTransform="matrix(0.0156 -0.9999 1.1028 0.0172 0 0)" gradientUnits="userSpaceOnUse" r="70.091">
      <stop offset="0.1637" stop-color="#EE5416"/>
      <stop offset="0.2337" stop-color="#E95216"/>
      <stop offset="0.3112" stop-color="#DC4D17"/>
      <stop offset="0.3923" stop-color="#C64418"/>
      <stop offset="0.4755" stop-color="#A7391A"/>
      <stop offset="0.4969" stop-color="#9E351B"/>
      <stop offset="0.5763" stop-color="#8D311B"/>
      <stop offset="0.734" stop-color="#60281A"/>
      <stop offset="0.9508" stop-color="#191919"/>
    </radialGradient>
    <radialGradient id="SVGID_2_" cx="66.1051" cy="69.1262" gradientUnits="userSpaceOnUse" r="35.7239">
      <stop offset="0.4147" stop-color="#F3A05C"/>
      <stop offset="0.9987" stop-color="#AB5931"/>
    </radialGradient>
  </defs>
  <path d="M116.69,124.19 L11.38,124.19 C7.23,124.19 3.86,120.82 3.86,116.67 L3.86,11.37 C3.86,7.22 7.23,3.85 11.38,3.85 L116.68,3.85 C120.83,3.85 124.2,7.22 124.2,11.37 L124.2,116.67 C124.21,120.83 120.84,124.19 116.69,124.19 Z" fill="url(#SVGID_1_)"/>
  <path d="M61.57,76.36 L61.29,124.2 L68.26,124.19 L69.29,73.48 L65.2,69.85 Z" fill="url(#SVGID_2_)"/>
  <path d="M69.2,58.22 L90.7,27.66 L95.13,28.04 L75.33,58.64 C75.33,58.64 96.35,41.42 97.48,40.67 C98.61,39.92 99.27,40.1 99.84,40.67 C100.41,41.24 100.12,42.08 99.09,42.93 C98.06,43.78 73.91,62.8 73.91,62.8 L106.82,54.23 L110.87,55.27 L106.63,57.72 L74.32,66.07 L110.4,70.45 C110.4,70.45 112.47,70.92 112.19,72.71 C111.91,74.5 110.4,74.31 109.55,74.31 C108.7,74.31 75.94,71.14 75.94,71.14 C75.94,71.14 97.39,84.68 98.43,85.34 C99.47,86 100.03,87.32 99.47,88.26 C98.9,89.2 97.68,89.01 96.36,88.45 C95.04,87.89 74.21,74.8 74.21,74.8 L98.33,109.28 L97.76,113.9 C97.76,113.9 96.44,112.86 95.4,111.45 C94.36,110.04 67.27,74.69 65.76,74.6 C64.25,74.51 35.92,102.4 35.92,102.4 L29.89,102.78 L32.91,97.78 L55.6,73.48 C55.6,73.48 18.4,86.76 16.7,87.13 C15,87.51 13.12,88.54 12.46,86.75 C11.8,84.96 13.87,84.39 15.29,83.92 C16.71,83.45 53.98,69.81 53.98,69.81 L28.02,67.89 L26.13,64.21 L53.27,66.55 L18.12,46.32 L24.44,44.53 L55.1,60.36 C55.1,60.36 28.96,31.42 28.11,30.48 C27.26,29.54 26.54,28.28 27.64,27.28 C28.77,26.24 30.37,27.66 31.03,28.51 C31.69,29.36 59.85,59.5 59.57,58.84 C59.29,58.18 44.98,20.97 44.98,20.97 L46.3,18.61 L49.79,21.34 L64.14,57.88 L65.25,20.68 L69.21,23.23 L69.2,58.22 Z" fill="#FFFFFF"/>
  <path d="M46.05,14.31 C46.05,14.31 50.96,9.42 51.72,8.84 C52.8,8.03 54.22,8.64 53.41,10.26 C52.6,11.88 49.02,17.28 49.02,17.28 C49.02,17.28 57.36,23.66 58.13,24.23 C59.21,25.04 58.26,26.59 57.19,26.05 C56.11,25.51 47.13,20.38 47.13,20.38 C47.13,20.38 43.72,32.63 43.35,33.47 C42.61,35.16 41.26,35.02 41.12,33.34 C40.99,31.77 42.06,20.11 42.06,20.11 C42.06,20.11 30.92,19.03 28.83,18.76 C26.74,18.49 26.74,16.34 29.3,16.4 C32.13,16.47 41.65,16.47 41.65,16.47 C41.65,16.47 40.71,11.21 40.44,9.38 C40.17,7.56 41.6,7.17 42.4,8.5 C43.21,9.85 46.05,14.31 46.05,14.31 Z" fill="#FFE268"/>
  <path d="M65.42,22.81 C64.41,22.34 57.66,15.99 57.05,15.25 C56.44,14.51 56.97,13.04 58.53,13.9 C60.17,14.8 64.41,17.2 64.41,17.2 C64.41,17.2 64.81,11.27 64.95,9.99 C65.15,8.03 66.43,8.17 66.84,9.99 C67.25,11.81 68.04,16.94 68.04,16.94 C68.04,16.94 78.29,10.09 79.25,9.45 C80.67,8.51 81.95,9.58 80.46,11.27 C78.98,12.96 69.81,21.15 70.02,21.28 C70.22,21.41 75.06,23.79 76.14,24.5 C77.89,25.65 77.29,27.13 75.26,26.46 C73.24,25.79 68.84,23.84 68.03,23.57 C67.23,23.3 65.42,22.81 65.42,22.81 Z" fill="#FFE268"/>
  <path d="M93.63,29.36 C93.36,29.29 84.45,27.34 83.57,26.93 C82.69,26.53 82.76,25.11 84.24,25.51 C85.72,25.91 90.58,26.72 90.58,26.72 C90.58,26.72 86.13,17.2 85.59,15.92 C85.05,14.64 85.99,13.96 86.94,14.84 C87.88,15.72 91.87,20.31 91.87,20.31 C91.87,20.31 92.34,14.71 92.68,13.09 C93.02,11.47 94.43,11.88 94.77,13.22 C95,14.16 96.09,21.57 96.09,21.57 C96.09,21.57 106.91,17.66 108.33,17.2 C110.22,16.59 110.83,17.74 109.21,18.89 C107.59,20.04 98.68,24.9 98.88,25.17 C99.08,25.44 104.28,26.72 105.56,27.13 C106.84,27.53 106.98,29.02 105.22,29.15 C103.48,29.29 93.63,29.36 93.63,29.36 Z" fill="#FFE268"/>
  <path d="M109.55,52.44 C109.68,52.51 113.87,43.94 114.75,42.72 C115.63,41.51 116.5,42.38 116.44,43.33 C116.37,44.27 113.81,53.05 113.81,53.05 C113.81,53.05 118.67,53.18 120.15,53.32 C121.63,53.45 121.9,54.67 120.22,55.14 C118.53,55.61 113.88,56.83 113.88,56.83 C113.88,56.83 116.17,60.47 117.32,62.36 C118.1,63.64 117.19,64.86 115.84,63.84 C114.49,62.83 110.37,57.9 110.37,57.9 C110.37,57.9 104.97,65.19 103.96,66.4 C102.95,67.61 101.27,67.04 102.35,65.15 C103.16,63.73 108.29,55.4 108.29,55.4 C108.29,55.4 97.61,51.97 96.49,51.55 C94.87,50.94 95.12,49.4 97.01,49.74 C98.89,50.08 109.42,52.37 109.55,52.44 Z" fill="#FFE268"/>
  <path d="M110.96,72.74 C110.96,72.74 107.51,67.64 107.13,66.82 C106.66,65.81 107.2,65 108.48,65.74 C109.76,66.48 113.68,69.45 113.68,69.45 C113.68,69.45 114.56,68.3 115.57,67.22 C116.58,66.14 117.51,66.41 117,68.1 C116.59,69.48 116,71.42 116,71.42 C116,71.42 119.02,72.33 120.1,72.73 C121.02,73.08 121.45,73.96 119.83,74.43 C119.03,74.66 116.12,75.1 116.12,75.1 C116.12,75.1 118.48,80.43 118.95,81.51 C119.62,83.06 117.8,84.14 116.86,82.32 C116.22,81.09 113.69,76.58 113.69,76.58 C113.69,76.58 107.79,82.77 106.81,83.6 C105.53,84.68 104.52,84.48 105.06,82.79 C105.6,81.1 110.96,72.74 110.96,72.74 Z" fill="#FFE268"/>
  <path d="M96.53,110.82 C96.53,110.82 101.02,93.7 101.42,92.26 C101.96,90.3 103.95,90.37 103.82,92.32 C103.68,94.34 101.59,110.73 101.59,110.73 C101.59,110.73 110.16,109.1 111.85,108.63 C113.54,108.16 114.89,108.92 113,110.14 C111.11,111.35 102.54,116.15 102.54,116.15 C102.54,116.15 103.28,118.85 103.89,120.74 C104.4,122.33 103.71,122.8 102.22,121.72 C101.17,120.96 98.65,118.78 98.65,118.78 C98.65,118.78 96.8,121.57 96.02,122.3 C95.18,123.09 94.3,123.37 94.51,121.62 C94.65,120.4 95.44,116.52 95.44,116.52 C95.45,116.58 83.8,114.29 82.04,113.84 C80.4,113.42 80.06,112.71 81.75,112.64 C83.44,112.57 96.53,110.82 96.53,110.82 Z" fill="#FFE268"/>
  <path d="M33.29,100.97 C33.29,100.97 33.14,93.15 33.02,91.18 C32.89,89.02 31.33,88.75 30.66,90.84 C30.07,92.68 28.43,98.87 28.43,98.87 C28.43,98.87 21.41,92.26 20.33,91.24 C19.25,90.22 18.04,91.24 18.64,92.45 C19.25,93.66 24.46,104.33 24.46,104.33 C24.46,104.33 19.38,111.49 18.44,113.38 C17.5,115.27 18.78,115.81 20.19,115.27 C21.6,114.73 28.28,110.16 28.28,110.16 C28.28,110.16 35.57,117.77 36.45,118.51 C37.33,119.25 38.61,118.71 38.14,117.16 C37.65,115.57 33.53,106.83 33.53,106.83 C33.53,106.83 44.35,103.59 45.84,103.12 C47.32,102.65 46.92,100.83 45.23,100.89 C43.54,100.95 33.29,100.97 33.29,100.97 Z" fill="#FFE268"/>
  <path d="M26.54,62.43 C26.54,62.43 32.21,59.66 33.22,59.12 C34.23,58.58 35.24,59.73 34.23,60.74 C33.22,61.75 29.17,65.53 29.17,65.53 C29.17,65.53 33.08,69.44 34.03,70.25 C34.97,71.06 34.57,72.34 32.95,71.94 C31.33,71.54 26.54,69.04 26.54,69.04 C26.54,69.04 24.24,73.6 23.77,74.3 C23.1,75.31 21.81,75.11 21.75,73.63 C21.68,72.15 21.87,67.95 21.87,67.95 C21.87,67.95 15.02,66.56 11.69,65.66 C10.45,65.33 10.14,63.91 11.96,63.7 C13.78,63.49 22.15,63.03 22.15,63.03 C22.15,63.03 22.63,58.06 22.76,57.02 C22.89,55.94 23.91,55.74 24.51,56.89 C25.12,58.04 26.54,62.43 26.54,62.43 Z" fill="#FFE268"/>
  <path d="M21.55,46.91 C21.55,46.91 21.55,54.27 21.62,55.14 C21.69,56.02 20.41,56.62 19.93,55.27 C19.46,53.92 17.23,47.56 17.23,47.56 C17.23,47.56 12.64,52.03 11.63,52.91 C10.62,53.79 9.2,53.25 9.88,51.83 C10.55,50.41 13.82,44.65 13.82,44.65 C13.82,44.65 8.67,40.49 7.52,39.48 C5.82,38 6.7,36.78 8.18,37.25 C9.66,37.72 16.15,40.31 16.15,40.31 C16.15,40.31 19.88,33.28 20.26,32.52 C21.07,30.9 22.08,31.31 22.01,33.06 C21.94,34.81 21.07,41.36 21.07,41.36 C21.07,41.36 28.01,40.23 29.44,40.01 C31.6,39.67 31.8,40.55 30.25,41.83 C28.7,43.13 21.55,46.91 21.55,46.91 Z" fill="#FFE268"/>
</svg>
